;START_OF_HEADER
;HEADER_VERSION:0.1
;FLAVOR:Griffin
;GENERATOR.NAME:Cura_SteamEngine
;GENERATOR.VERSION:5.11.0
;GENERATOR.BUILD_DATE:2025-10-23
;TARGET_MACHINE.NAME:Ultimaker S5
;EXTRUDER_TRAIN.0.INITIAL_TEMPERATURE:215
;EXTRUDER_TRAIN.0.NOZZLE.DIAMETER:0.4
;EXTRUDER_TRAIN.0.NOZZLE.NAME:unknown
;BUILD_PLATE.INITIAL_TEMPERATURE:60
;BUILD_VOLUME.TEMPERATURE:0
;PRINT.GROUPS:1
;PRINT.SIZE.MIN.X:0
;PRINT.SIZE.MIN.Y:0
;PRINT.SIZE.MIN.Z:0
;PRINT.SIZE.MAX.X:0.01
;PRINT.SIZE.MAX.Y:0.01
;PRINT.SIZE.MAX.Z:0.01
;SLICE_UUID:912dd2c7-bcfc-4c3b-a021-39c744ce932a
;END_OF_HEADER

;Generated with Cura_SteamEngine 5.11.0
T0

M82 ;absolute extrusion mode
G92 E0
M190 S60
M104 S215
M109 S215
G280 S1
G0 Z20.001
G1 F1500 E-6.5
;LAYER_COUNT:13
;LAYER:0
M107
G0 F3600 X118.665 Y85.441 Z0.3
;TYPE:SKIRT
G1 F1500 E0
G1 F1800 X119.815 Y83.952 E0.03539
G1 X121.085 Y82.421 E0.07281
G1 X122.375 Y80.963 E0.10943
G1 X123.636 Y79.627 E0.14398
G1 X125.098 Y78.18 E0.18268
G1 X126.518 Y76.867 E0.21906
G1 X127.867 Y75.7 E0.25261
G1 X129.504 Y74.379 E0.29218
G1 X130.992 Y73.259 E0.32721
G1 X132.608 Y72.127 E0.36433
G1 X134.28 Y71.043 E0.40181
G1 X135.95 Y70.034 E0.43851
G1 X137.634 Y69.093 E0.4748
G1 X139.356 Y68.203 E0.51126
G1 X141.121 Y67.362 E0.54804
G1 X142.898 Y66.592 E0.58447
G1 X144.713 Y65.875 E0.62118
G1 X146.537 Y65.23 E0.65757
G1 X148.397 Y64.638 E0.69428
G1 X150.252 Y64.12 E0.73051
G1 X152.131 Y63.655 E0.76692
G1 X154.043 Y63.247 E0.8037
G1 X155.943 Y62.913 E0.83999
G1 X157.887 Y62.635 E0.87693
G1 X159.802 Y62.433 E0.91315
G1 X161.758 Y62.286 E0.95005
G1 X163.681 Y62.216 E0.98624
G1 X165.638 Y62.202 E1.02306
G1 X167.571 Y62.263 E1.05944
G1 X169.487 Y62.382 E1.09555
G1 X171.441 Y62.557 E1.13245
G1 X173.351 Y62.807 E1.16868
G1 X175.275 Y63.118 E1.20535
G1 X177.195 Y63.496 E1.24215
G1 X178.955 Y63.908 E1.27616
G1 X180.955 Y64.447 E1.31512
G1 X182.8 Y65.012 E1.35142
G1 X184.645 Y65.643 E1.3881
G1 X186.461 Y66.334 E1.42464
G1 X188.257 Y67.088 E1.46128
G1 X189.997 Y67.887 E1.4973
G1 X191.755 Y68.768 E1.53429
G1 X193.459 Y69.694 E1.57077
G1 X195.118 Y70.674 E1.60701
G1 X196.771 Y71.716 E1.64377
G1 X198.381 Y72.814 E1.68043
G1 X199.948 Y73.965 E1.717
G1 X201.473 Y75.163 E1.75348
G1 X202.946 Y76.406 E1.78974
G1 X204.401 Y77.715 E1.82655
G1 X205.784 Y79.053 E1.86275
G1 X207.151 Y80.453 E1.89956
G1 X208.45 Y81.886 E1.93594
G1 X209.706 Y83.365 E1.97244
G1 X210.906 Y84.888 E2.00891
G1 X212.062 Y86.447 E2.04542
G1 X213.142 Y88.013 E2.0812
G1 X214.219 Y89.703 E2.1189
G1 X215.196 Y91.357 E2.15503
G1 X216.143 Y93.079 E2.192
G1 X217.003 Y94.792 E2.22805
G1 X217.83 Y96.562 E2.2648
G1 X218.588 Y98.348 E2.3013
G1 X219.291 Y100.165 E2.33795
G1 X219.923 Y101.991 E2.3743
G1 X220.502 Y103.86 E2.4111
G1 X221.007 Y105.728 E2.4475
G1 X221.456 Y107.626 E2.48419
G1 X221.832 Y109.516 E2.52044
G1 X222.152 Y111.416 E2.55668
G1 X222.416 Y113.36 E2.59358
G1 X222.605 Y115.279 E2.62986
G1 X222.737 Y117.227 E2.66658
G1 X222.793 Y118.906 E2.69818
G1 X222.793 Y121.12 E2.73983
G1 X222.718 Y123.045 E2.77607
G1 X222.585 Y125.006 E2.81304
G1 X222.377 Y126.919 E2.84924
G1 X222.118 Y128.825 E2.88542
G1 X221.796 Y130.749 E2.92211
G1 X221.398 Y132.647 E2.95859
G1 X220.946 Y134.549 E2.99537
G1 X220.46 Y136.306 E3.02966
G1 X219.839 Y138.253 E3.0681
G1 X219.194 Y140.086 E3.10465
G1 X218.481 Y141.921 E3.14168
G1 X217.732 Y143.664 E3.17737
G1 X216.887 Y145.458 E3.21467
G1 X216.008 Y147.175 E3.25096
G1 X215.066 Y148.876 E3.28753
G1 X214.095 Y150.503 E3.32317
G1 X213.013 Y152.171 E3.36057
G1 X211.908 Y153.758 E3.39695
G1 X210.749 Y155.323 E3.43358
G1 X209.543 Y156.831 E3.4699
G1 X208.271 Y158.324 E3.5068
G1 X207.002 Y159.711 E3.54216
G1 X205.601 Y161.139 E3.57979
G1 X204.222 Y162.458 E3.61568
G1 X202.744 Y163.773 E3.6529
G1 X201.253 Y165.019 E3.68945
G1 X199.827 Y166.13 E3.72345
G1 X198.143 Y167.355 E3.76262
G1 X196.638 Y168.371 E3.79678
G1 X194.9 Y169.465 E3.83541
G1 X193.246 Y170.429 E3.87142
G1 X191.517 Y171.354 E3.90831
G1 X189.756 Y172.224 E3.94525
G1 X187.994 Y173.02 E3.98162
G1 X186.206 Y173.763 E4.01805
G1 X184.376 Y174.454 E4.05484
G1 X182.535 Y175.072 E4.09137
G1 X180.707 Y175.618 E4.12726
G1 X178.805 Y176.129 E4.1643
G1 X176.898 Y176.565 E4.2011
G1 X175.005 Y176.926 E4.23735
G1 X173.073 Y177.232 E4.27415
G1 X171.162 Y177.463 E4.31035
G1 X169.243 Y177.638 E4.3466
G1 X167.282 Y177.756 E4.38356
G1 X165.361 Y177.798 E4.4197
G1 X163.396 Y177.784 E4.45666
G1 X161.47 Y177.694 E4.49293
G1 X159.517 Y177.541 E4.52978
G1 X157.604 Y177.326 E4.56599
G1 X155.664 Y177.043 E4.60287
G1 X153.759 Y176.695 E4.6393
G1 X151.876 Y176.286 E4.67554
G1 X149.985 Y175.817 E4.71219
G1 X148.124 Y175.284 E4.74861
G1 X146.296 Y174.691 E4.78476
G1 X144.46 Y174.028 E4.82148
G1 X142.668 Y173.309 E4.8578
G1 X140.87 Y172.522 E4.89472
G1 X139.125 Y171.681 E4.93115
G1 X137.4 Y170.784 E4.96773
G1 X135.742 Y169.85 E5.00352
G1 X134.059 Y168.819 E5.04065
G1 X132.419 Y167.74 E5.07758
G1 X130.839 Y166.622 E5.11398
G1 X129.338 Y165.485 E5.14941
G1 X127.782 Y164.221 E5.18712
G1 X126.318 Y162.946 E5.22363
G1 X124.911 Y161.634 E5.25982
G1 X123.527 Y160.25 E5.29664
G1 X122.2 Y158.838 E5.33309
G1 X120.907 Y157.371 E5.36987
G1 X119.689 Y155.878 E5.40612
G1 X118.5 Y154.328 E5.44286
G1 X117.376 Y152.744 E5.4794
G1 X116.307 Y151.133 E5.51577
G1 X115.287 Y149.485 E5.55222
G1 X114.314 Y147.786 E5.58905
G1 X113.417 Y146.078 E5.62534
G1 X112.576 Y144.34 E5.66166
G1 X111.777 Y142.556 E5.69843
G1 X111.059 Y140.778 E5.7345
G1 X110.386 Y138.925 E5.77158
G1 X109.781 Y137.094 E5.80786
G1 X109.233 Y135.224 E5.84451
G1 X108.76 Y133.364 E5.88061
G1 X108.354 Y131.526 E5.91602
G1 X108 Y129.576 E5.9533
G1 X107.709 Y127.627 E5.99037
G1 X107.474 Y125.682 E6.02722
G1 X107.316 Y123.771 E6.06329
G1 X107.228 Y121.8 E6.1004
G1 X107.2 Y119.864 E6.13683
G1 X107.232 Y117.93 E6.17321
G1 X107.32 Y116.163 E6.20649
G1 X107.512 Y114.035 E6.24668
G1 X107.748 Y112.13 E6.28279
G1 X108.037 Y110.22 E6.31913
G1 X108.383 Y108.322 E6.35542
G1 X108.766 Y106.604 E6.38853
G1 X109.307 Y104.516 E6.4291
G1 X109.844 Y102.703 E6.46467
G1 X110.472 Y100.823 E6.50195
G1 X111.102 Y99.108 E6.53632
G1 X111.883 Y97.205 E6.57501
G1 X112.684 Y95.434 E6.61158
G1 X113.503 Y93.756 E6.6467
G1 X114.452 Y91.969 E6.68476
G1 X115.43 Y90.274 E6.72157
G1 X116.449 Y88.645 E6.75771
G1 X117.531 Y87.027 E6.79433
G1 X118.665 Y85.441 E6.831
G0 F3600 X118.982 Y85.686
G1 F1800 X120.132 Y84.197 E6.86639
G1 X121.384 Y82.686 E6.90331
G1 X122.666 Y81.238 E6.93968
G1 X123.927 Y79.902 E6.97424
G1 X125.369 Y78.474 E7.01242
G1 X126.78 Y77.17 E7.04856
G1 X128.129 Y76.003 E7.08211
G1 X129.744 Y74.699 E7.12116
G1 X131.222 Y73.587 E7.15595
G1 X132.826 Y72.463 E7.19279
G1 X134.487 Y71.385 E7.23004
G1 X136.145 Y70.383 E7.26648
G1 X137.818 Y69.448 E7.30253
G1 X139.528 Y68.564 E7.33874
G1 X141.28 Y67.729 E7.37525
G1 X143.045 Y66.964 E7.41143
G1 X144.846 Y66.252 E7.44786
G1 X146.658 Y65.611 E7.48402
G1 X148.505 Y65.023 E7.52048
G1 X150.348 Y64.508 E7.55647
G1 X152.214 Y64.046 E7.59263
G1 X154.112 Y63.641 E7.62914
G1 X156 Y63.309 E7.6652
G1 X157.929 Y63.033 E7.70185
G1 X159.832 Y62.832 E7.73785
G1 X161.773 Y62.686 E7.77446
G1 X163.684 Y62.616 E7.81044
G1 X165.626 Y62.602 E7.84697
G1 X167.546 Y62.662 E7.8831
G1 X169.451 Y62.78 E7.919
G1 X171.389 Y62.954 E7.9556
G1 X173.287 Y63.202 E7.99161
G1 X175.198 Y63.51 E8.02802
G1 X177.104 Y63.885 E8.06456
G1 X178.851 Y64.294 E8.09831
G1 X180.838 Y64.829 E8.13702
G1 X182.671 Y65.391 E8.17308
G1 X184.503 Y66.017 E8.2095
G1 X186.306 Y66.703 E8.24579
G1 X188.09 Y67.451 E8.28218
G1 X189.818 Y68.245 E8.31795
G1 X191.564 Y69.119 E8.35468
G1 X193.256 Y70.038 E8.3909
G1 X194.905 Y71.012 E8.42692
G1 X196.546 Y72.046 E8.46341
G1 X198.144 Y73.136 E8.49979
G1 X199.701 Y74.279 E8.53613
G1 X201.215 Y75.469 E8.57235
G1 X202.678 Y76.703 E8.60835
G1 X204.123 Y78.003 E8.64491
G1 X205.498 Y79.332 E8.68088
G1 X206.855 Y80.722 E8.71743
G1 X208.145 Y82.145 E8.75355
G1 X209.392 Y83.613 E8.78979
G1 X210.585 Y85.126 E8.82603
G1 X211.733 Y86.674 E8.86228
G1 X212.805 Y88.228 E8.89779
G1 X213.875 Y89.907 E8.93525
G1 X214.846 Y91.55 E8.97114
G1 X215.786 Y93.258 E9.00782
G1 X216.641 Y94.961 E9.04366
G1 X217.462 Y96.718 E9.08014
G1 X218.215 Y98.492 E9.11639
G1 X218.913 Y100.296 E9.15278
G1 X219.541 Y102.109 E9.18887
G1 X220.116 Y103.964 E9.2254
G1 X220.618 Y105.82 E9.26157
G1 X221.064 Y107.704 E9.29799
G1 X221.438 Y109.582 E9.33401
G1 X221.756 Y111.47 E9.37002
G1 X222.018 Y113.399 E9.40664
G1 X222.206 Y115.306 E9.44269
G1 X222.337 Y117.24 E9.47915
G1 X222.393 Y118.919 E9.51075
G1 X222.393 Y121.105 E9.55187
G1 X222.319 Y123.018 E9.58788
G1 X222.187 Y124.963 E9.62455
G1 X221.981 Y126.865 E9.66054
G1 X221.723 Y128.759 E9.6965
G1 X221.401 Y130.683 E9.73319
G1 X221.009 Y132.554 E9.76915
G1 X220.56 Y134.442 E9.80565
G1 X220.074 Y136.199 E9.83995
G1 X219.462 Y138.12 E9.87787
G1 X218.821 Y139.941 E9.91418
G1 X218.114 Y141.763 E9.95095
G1 X217.37 Y143.494 E9.98639
G1 X216.531 Y145.276 E10.02344
G1 X215.658 Y146.981 E10.05947
G1 X214.722 Y148.671 E10.09581
G1 X213.759 Y150.285 E10.13116
G1 X212.685 Y151.942 E10.16831
G1 X211.586 Y153.52 E10.20448
G1 X210.437 Y155.073 E10.24082
G1 X209.239 Y156.572 E10.27691
G1 X207.976 Y158.054 E10.31354
G1 X206.717 Y159.431 E10.34864
G1 X205.324 Y160.85 E10.38604
G1 X203.956 Y162.159 E10.42166
G1 X202.487 Y163.466 E10.45864
G1 X201.007 Y164.703 E10.49493
G1 X199.581 Y165.814 E10.52893
G1 X197.919 Y167.023 E10.56759
G1 X196.414 Y168.039 E10.60175
G1 X194.699 Y169.119 E10.63987
G1 X193.057 Y170.076 E10.67562
G1 X191.34 Y170.995 E10.71226
G1 X189.591 Y171.86 E10.74896
G1 X187.841 Y172.651 E10.78508
G1 X186.065 Y173.389 E10.82126
G1 X184.249 Y174.075 E10.85778
G1 X182.421 Y174.689 E10.89405
G1 X180.603 Y175.232 E10.92974
G1 X178.716 Y175.739 E10.9665
G1 X176.823 Y176.172 E11.00302
G1 X174.942 Y176.531 E11.03905
G1 X173.025 Y176.835 E11.07556
G1 X171.126 Y177.065 E11.11154
G1 X169.219 Y177.239 E11.14756
G1 X167.273 Y177.356 E11.18423
G1 X165.364 Y177.398 E11.22015
G1 X163.415 Y177.384 E11.25681
G1 X161.501 Y177.295 E11.29285
G1 X159.562 Y177.143 E11.32944
G1 X157.662 Y176.93 E11.3654
G1 X155.736 Y176.649 E11.40202
G1 X153.844 Y176.304 E11.43819
G1 X151.972 Y175.898 E11.47422
G1 X150.095 Y175.433 E11.5106
G1 X148.247 Y174.903 E11.54676
G1 X146.432 Y174.315 E11.58265
G1 X144.609 Y173.657 E11.61911
G1 X142.828 Y172.942 E11.65521
G1 X141.044 Y172.162 E11.69183
G1 X139.309 Y171.326 E11.72806
G1 X137.596 Y170.436 E11.76437
G1 X135.951 Y169.509 E11.79989
G1 X134.279 Y168.485 E11.83677
G1 X132.65 Y167.413 E11.87345
G1 X131.081 Y166.303 E11.90961
G1 X129.58 Y165.166 E11.94503
G1 X128.045 Y163.919 E11.98223
G1 X126.591 Y162.653 E12.01849
G1 X125.194 Y161.351 E12.05442
G1 X123.818 Y159.976 E12.09101
G1 X122.5 Y158.574 E12.1272
G1 X121.217 Y157.118 E12.16371
G1 X120.006 Y155.635 E12.19972
G1 X118.826 Y154.097 E12.23619
G1 X117.709 Y152.523 E12.27249
G1 X116.647 Y150.923 E12.30862
G1 X115.634 Y149.286 E12.34483
G1 X114.668 Y147.6 E12.38138
G1 X113.777 Y145.904 E12.41742
G1 X112.941 Y144.177 E12.45351
G1 X112.148 Y142.406 E12.49001
G1 X111.435 Y140.641 E12.52582
G1 X110.766 Y138.8 E12.56266
G1 X110.165 Y136.981 E12.5987
G1 X109.621 Y135.125 E12.63508
G1 X109.151 Y133.278 E12.67093
G1 X108.748 Y131.454 E12.70607
G1 X108.396 Y129.517 E12.7431
G1 X108.106 Y127.579 E12.77996
G1 X107.873 Y125.649 E12.81653
G1 X107.716 Y123.753 E12.85232
G1 X107.628 Y121.794 E12.8892
G1 X107.6 Y119.871 E12.92538
G1 X107.632 Y117.95 E12.96152
G1 X107.72 Y116.183 E12.9948
G1 X107.909 Y114.084 E13.03444
G1 X108.143 Y112.19 E13.07034
G1 X108.431 Y110.292 E13.10645
G1 X108.777 Y108.394 E13.14274
G1 X109.153 Y106.704 E13.17531
G1 X109.691 Y104.63 E13.21561
G1 X110.228 Y102.817 E13.25118
G1 X110.847 Y100.961 E13.28798
G1 X111.472 Y99.26 E13.32207
G1 X112.247 Y97.37 E13.3605
G1 X113.044 Y95.609 E13.39686
G1 X113.856 Y93.944 E13.4317
G1 X114.798 Y92.169 E13.4695
G1 X115.769 Y90.486 E13.50605
G1 X116.781 Y88.867 E13.54197
G1 X117.856 Y87.26 E13.57833
G1 X118.982 Y85.686 E13.61474
G0 F3600 X119.299 Y85.931
G1 F1800 X120.449 Y84.442 E13.65013
G1 X121.684 Y82.951 E13.68655
G1 X122.957 Y81.513 E13.72267
G1 X124.218 Y80.177 E13.75723
G1 X125.641 Y78.768 E13.7949
G1 X127.042 Y77.473 E13.83079
G1 X128.391 Y76.306 E13.86434
G1 X129.985 Y75.019 E13.90288
G1 X131.452 Y73.915 E13.93741
G1 X133.056 Y72.791 E13.97426
G1 X134.694 Y71.727 E14.011
G1 X136.34 Y70.732 E14.04718
G1 X138.002 Y69.803 E14.08299
G1 X139.7 Y68.925 E14.11895
G1 X141.439 Y68.096 E14.15519
G1 X143.192 Y67.336 E14.19113
G1 X144.98 Y66.629 E14.2273
G1 X146.779 Y65.992 E14.26319
G1 X148.613 Y65.408 E14.2994
G1 X150.444 Y64.896 E14.33516
G1 X152.297 Y64.437 E14.37107
G1 X154.181 Y64.035 E14.40731
G1 X156.057 Y63.705 E14.44314
G1 X157.971 Y63.431 E14.47951
G1 X159.862 Y63.231 E14.51528
G1 X161.788 Y63.086 E14.55161
G1 X163.687 Y63.016 E14.58736
G1 X165.614 Y63.002 E14.62361
G1 X167.521 Y63.061 E14.65949
G1 X169.415 Y63.178 E14.69519
G1 X171.337 Y63.351 E14.73149
G1 X173.224 Y63.597 E14.76729
G1 X175.121 Y63.902 E14.80343
G1 X177.013 Y64.274 E14.8397
G1 X178.747 Y64.68 E14.8732
G1 X180.721 Y65.211 E14.91165
G1 X182.542 Y65.769 E14.94748
G1 X184.361 Y66.391 E14.98364
G1 X186.151 Y67.072 E15.01966
G1 X187.923 Y67.815 E15.05581
G1 X189.639 Y68.603 E15.09133
G1 X191.373 Y69.471 E15.1278
G1 X193.053 Y70.383 E15.16376
G1 X194.692 Y71.35 E15.19956
G1 X196.321 Y72.376 E15.23577
G1 X197.907 Y73.458 E15.27189
G1 X199.454 Y74.594 E15.30799
G1 X200.957 Y75.775 E15.34394
G1 X202.41 Y77 E15.37969
G1 X203.845 Y78.291 E15.416
G1 X205.212 Y79.612 E15.45176
G1 X206.559 Y80.991 E15.48802
G1 X207.84 Y82.404 E15.5239
G1 X209.078 Y83.861 E15.55986
G1 X210.264 Y85.364 E15.59588
G1 X211.404 Y86.901 E15.63187
G1 X212.468 Y88.443 E15.66712
G1 X213.531 Y90.11 E15.70431
G1 X214.496 Y91.743 E15.73999
G1 X215.429 Y93.437 E15.77636
G1 X216.279 Y95.13 E15.812
G1 X217.094 Y96.874 E15.84821
G1 X217.842 Y98.636 E15.88422
G1 X218.535 Y100.427 E15.92034
G1 X219.159 Y102.227 E15.95618
G1 X219.73 Y104.068 E15.99243
G1 X220.229 Y105.912 E16.02837
G1 X220.672 Y107.782 E16.06452
G1 X221.044 Y109.648 E16.10031
G1 X221.36 Y111.524 E16.13609
G1 X221.62 Y113.438 E16.17243
G1 X221.807 Y115.333 E16.20825
G1 X221.937 Y117.253 E16.24445
G1 X221.993 Y118.932 E16.27605
G1 X221.993 Y121.09 E16.31664
G1 X221.92 Y122.991 E16.35243
G1 X221.789 Y124.92 E16.38879
G1 X221.585 Y126.811 E16.42457
G1 X221.329 Y128.693 E16.4603
G1 X221.009 Y130.601 E16.49669
G1 X220.62 Y132.461 E16.53244
G1 X220.174 Y134.335 E16.56867
G1 X219.688 Y136.092 E16.60296
G1 X219.085 Y137.987 E16.64037
G1 X218.448 Y139.796 E16.67645
G1 X217.747 Y141.605 E16.71294
G1 X217.008 Y143.324 E16.74814
G1 X216.175 Y145.094 E16.78493
G1 X215.308 Y146.787 E16.82071
G1 X214.379 Y148.466 E16.85681
G1 X213.423 Y150.067 E16.89188
G1 X212.349 Y151.724 E16.92903
G1 X211.265 Y153.282 E16.96473
G1 X210.124 Y154.823 E17.0008
G1 X208.934 Y156.313 E17.03667
G1 X207.681 Y157.784 E17.07302
G1 X206.432 Y159.151 E17.10785
G1 X205.048 Y160.561 E17.14501
G1 X203.69 Y161.86 E17.18036
G1 X202.23 Y163.159 E17.21712
G1 X200.761 Y164.387 E17.25314
G1 X199.335 Y165.498 E17.28714
G1 X197.695 Y166.691 E17.32529
G1 X196.19 Y167.707 E17.35945
G1 X194.498 Y168.773 E17.39706
G1 X192.868 Y169.723 E17.43255
G1 X191.151 Y170.642 E17.46919
G1 X189.426 Y171.496 E17.50539
G1 X187.688 Y172.282 E17.54127
G1 X185.924 Y173.015 E17.57721
G1 X184.122 Y173.696 E17.61344
G1 X182.307 Y174.306 E17.64946
G1 X180.499 Y174.846 E17.68495
G1 X178.627 Y175.349 E17.72142
G1 X176.748 Y175.779 E17.75768
G1 X174.879 Y176.136 E17.79347
G1 X172.977 Y176.438 E17.82969
G1 X171.09 Y176.667 E17.86545
G1 X169.195 Y176.84 E17.90124
G1 X167.264 Y176.956 E17.93763
G1 X165.367 Y176.998 E17.97333
G1 X163.433 Y176.984 E18.00971
G1 X161.532 Y176.896 E18.0455
G1 X159.607 Y176.746 E18.08182
G1 X157.72 Y176.534 E18.11754
G1 X155.808 Y176.256 E18.15389
G1 X153.929 Y175.913 E18.18981
G1 X152.068 Y175.51 E18.22563
G1 X150.205 Y175.048 E18.26174
G1 X148.37 Y174.522 E18.29765
G1 X146.568 Y173.939 E18.33327
G1 X144.758 Y173.286 E18.36947
G1 X142.988 Y172.576 E18.40534
G1 X141.218 Y171.802 E18.44168
G1 X139.493 Y170.971 E18.4777
