;START_OF_HEADER
;HEADER_VERSION:0.1
;FLAVOR:Griffin
;GENERATOR.NAME:Cura_SteamEngine
;GENERATOR.VERSION:5.11.0
;GENERATOR.BUILD_DATE:2025-10-23
;TARGET_MACHINE.NAME:Ultimaker S5
;EXTRUDER_TRAIN.0.INITIAL_TEMPERATURE:215
;EXTRUDER_TRAIN.0.NOZZLE.DIAMETER:0.4
;EXTRUDER_TRAIN.0.NOZZLE.NAME:unknown
;BUILD_PLATE.INITIAL_TEMPERATURE:60
;BUILD_VOLUME.TEMPERATURE:0
;PRINT.GROUPS:1
;PRINT.SIZE.MIN.X:0
;PRINT.SIZE.MIN.Y:0
;PRINT.SIZE.MIN.Z:0
;PRINT.SIZE.MAX.X:0.01
;PRINT.SIZE.MAX.Y:0.01
;PRINT.SIZE.MAX.Z:0.01
;SLICE_UUID:f25e234f-e057-4baf-901b-9670606e27e2
;END_OF_HEADER

;Generated with Cura_SteamEngine 5.11.0
T0

M82 ;absolute extrusion mode
G92 E0
M190 S60
M104 S215
M109 S215
G280 S1
G0 Z20.001
G1 F1500 E-6.5
;LAYER_COUNT:9
;LAYER:0
M107
M104 S0
G0 F3600 X157.878 Y114.798 Z0.2
;TYPE:SKIRT
G1 F1500 E0
G1 F1800 X159.31 Y113.268 E0.03942
G1 X160.147 Y112.609 E0.05946
G1 X162.25 Y111.664 E0.10283
G1 X163.61 Y111.261 E0.12951
G1 X165.902 Y111.212 E0.17263
G1 X168.166 Y111.744 E0.21638
G1 X170.573 Y113.042 E0.26782
G1 X172.334 Y115.094 E0.31868
G1 X172.834 Y115.87 E0.33605
G1 X173.79 Y118.663 E0.39158
G1 X173.743 Y121.418 E0.44341
G1 X173.025 Y123.733 E0.489
G1 X171.718 Y125.767 E0.53448
G1 X169.985 Y127.264 E0.57756
G1 X168.428 Y128.131 E0.61108
G1 X166.322 Y128.742 E0.65233
G1 X163.768 Y128.789 E0.70038
G1 X161.289 Y128.024 E0.74918
G1 X158.979 Y126.557 E0.80066
G1 X157.045 Y123.998 E0.86099
G1 X156.979 Y123.865 E0.86379
G1 X156.258 Y121.306 E0.9138
G1 X156.218 Y118.878 E0.95947
G1 X156.411 Y117.996 E0.97646
G1 X157.211 Y115.973 E1.01738
G1 X157.878 Y114.798 E1.04279
G0 F3600 X158.201 Y115.039
G1 F1800 X159.558 Y113.582 E1.08025
G1 X160.354 Y112.955 E1.09931
G1 X162.364 Y112.048 E1.14079
G1 X163.674 Y111.66 E1.16649
G1 X165.861 Y111.613 E1.20764
G1 X168.022 Y112.121 E1.24939
G1 X170.318 Y113.359 E1.29846
G1 X172.03 Y115.354 E1.34791
G1 X172.472 Y116.046 E1.36336
G1 X173.389 Y118.725 E1.41662
G1 X173.344 Y121.354 E1.46608
G1 X172.659 Y123.562 E1.50957
G1 X171.412 Y125.503 E1.55297
G1 X169.754 Y126.935 E1.59418
G1 X168.274 Y127.759 E1.62604
G1 X166.262 Y128.343 E1.66545
G1 X163.824 Y128.388 E1.71132
G1 X161.461 Y127.659 E1.75783
G1 X159.253 Y126.256 E1.80704
G1 X157.364 Y123.757 E1.86597
G1 X156.657 Y121.248 E1.915
G1 X156.619 Y118.916 E1.95887
G1 X156.783 Y118.142 E1.97376
G1 X157.559 Y116.17 E2.01362
G1 X158.201 Y115.039 E2.03808
G0 F3600 X158.526 Y115.278
G1 F1800 X159.851 Y113.855 E2.07466
G1 X160.563 Y113.299 E2.09165
G1 X162.478 Y112.432 E2.13119
G1 X163.738 Y112.059 E2.15591
G1 X165.821 Y112.014 E2.1951
G1 X167.877 Y112.497 E2.23483
G1 X170.063 Y113.676 E2.28155
G1 X171.726 Y115.614 E2.32958
G1 X172.111 Y116.223 E2.34314
G1 X172.988 Y118.786 E2.39409
G1 X172.945 Y121.291 E2.44122
G1 X172.294 Y123.39 E2.48256
G1 X171.106 Y125.239 E2.5239
G1 X169.523 Y126.606 E2.56324
G1 X168.119 Y127.388 E2.59347
G1 X166.203 Y127.944 E2.631
G1 X163.88 Y127.987 E2.67471
G1 X161.631 Y127.293 E2.71898
G1 X159.528 Y125.957 E2.76585
G1 X157.729 Y123.577 E2.82197
G1 X157.056 Y121.189 E2.86864
G1 X157.02 Y118.954 E2.91068
G1 X157.155 Y118.288 E2.92346
G1 X157.907 Y116.368 E2.96225
G1 X158.526 Y115.278 E2.98583
G0 F3600 X158.851 Y115.517
G1 F1800 X160.144 Y114.128 E3.02153
G1 X160.771 Y113.644 E3.03643
G1 X162.591 Y112.816 E3.07404
G1 X163.801 Y112.458 E3.09777
G1 X165.78 Y112.415 E3.13501
G1 X167.733 Y112.874 E3.17275
G1 X169.806 Y113.992 E3.21705
G1 X171.422 Y115.875 E3.26373
G1 X171.748 Y116.397 E3.2753
G1 X172.587 Y118.848 E3.32404
G1 X172.546 Y121.227 E3.36879
G1 X171.928 Y123.219 E3.40802
G1 X170.801 Y124.973 E3.44724
G1 X169.293 Y126.276 E3.48473
G1 X167.96 Y127.018 E3.51343
G1 X166.144 Y127.545 E3.549
G1 X163.936 Y127.586 E3.59054
G1 X161.801 Y126.927 E3.63257
G1 X159.803 Y125.658 E3.67709
G1 X158.094 Y123.397 E3.7304
G1 X157.455 Y121.13 E3.77471
G1 X157.421 Y118.991 E3.81495
G1 X157.528 Y118.433 E3.82564
G1 X158.255 Y116.566 E3.86333
G1 X158.851 Y115.517 E3.88602
G0 F3600 X159.174 Y115.757
G1 F1800 X160.437 Y114.401 E3.92088
G1 X160.977 Y113.99 E3.93364
G1 X162.704 Y113.2 E3.96937
G1 X163.864 Y112.857 E3.99212
G1 X165.739 Y112.816 E4.0274
G1 X167.589 Y113.251 E4.06315
G1 X169.551 Y114.309 E4.10508
G1 X171.118 Y116.135 E4.15034
G1 X171.385 Y116.571 E4.15996
G1 X172.186 Y118.91 E4.20646
G1 X172.147 Y121.164 E4.24887
G1 X171.563 Y123.047 E4.28595
G1 X170.495 Y124.709 E4.32311
G1 X169.062 Y125.947 E4.35874
G1 X167.805 Y126.647 E4.3858
G1 X166.085 Y127.146 E4.41949
G1 X163.992 Y127.185 E4.45887
G1 X161.971 Y126.561 E4.49865
G1 X160.078 Y125.359 E4.54083
G1 X158.459 Y123.217 E4.59134
G1 X157.854 Y121.071 E4.63328
G1 X157.822 Y119.024 E4.67179
G1 X157.901 Y118.577 E4.68033
G1 X158.603 Y116.763 E4.71692
G1 X159.174 Y115.757 E4.73868
G0 F3600 X159.499 Y115.996
G1 F1800 X160.73 Y114.674 E4.77266
G1 X161.186 Y114.334 E4.78336
G1 X162.817 Y113.584 E4.81712
G1 X163.927 Y113.256 E4.8389
G1 X165.699 Y113.217 E4.87224
G1 X167.444 Y113.627 E4.90596
G1 X169.296 Y114.626 E4.94554
G1 X170.814 Y116.395 E4.98939
G1 X171.021 Y116.743 E4.997
G1 X171.785 Y118.972 E5.04133
G1 X171.748 Y121.1 E5.08136
G1 X171.197 Y122.876 E5.11634
G1 X170.189 Y124.445 E5.15142
G1 X168.831 Y125.618 E5.18517
G1 X167.651 Y126.275 E5.21058
G1 X166.025 Y126.747 E5.24243
G1 X164.048 Y126.784 E5.27962
G1 X162.143 Y126.196 E5.31712
G1 X160.352 Y125.058 E5.35704
G1 X158.824 Y123.037 E5.4047
G1 X158.253 Y121.012 E5.44427
G1 X158.222 Y119.018 E5.48179
G1 X158.274 Y118.721 E5.48746
G1 X158.951 Y116.961 E5.52293
G1 X159.499 Y115.996 E5.54381
G0 F3600 X159.824 Y116.235
G1 F1800 X161.023 Y114.947 E5.57691
G1 X161.392 Y114.679 E5.58548
G1 X162.93 Y113.968 E5.61736
G1 X163.99 Y113.655 E5.63815
G1 X165.658 Y113.618 E5.66953
G1 X167.3 Y114.004 E5.70126
G1 X169.039 Y114.942 E5.73843
G1 X170.51 Y116.656 E5.78091
G1 X170.643 Y116.873 E5.7857
G1 X171.384 Y119.034 E5.82867
G1 X171.349 Y121.037 E5.86636
G1 X170.832 Y122.704 E5.89919
G1 X169.883 Y124.181 E5.93221
G1 X168.6 Y125.289 E5.9641
G1 X167.496 Y125.904 E5.98787
G1 X165.966 Y126.348 E6.01784
G1 X164.104 Y126.383 E6.05287
G1 X162.313 Y125.83 E6.08813
G1 X160.627 Y124.759 E6.1257
G1 X159.189 Y122.857 E6.17055
G1 X158.652 Y120.953 E6.20777
G1 X158.622 Y119.012 E6.24428
G1 X158.648 Y118.864 E6.24711
G1 X159.299 Y117.159 E6.28144
G1 X159.824 Y116.235 E6.30143
G0 F3600 X160.147 Y116.475
G1 F1800 X161.316 Y115.22 E6.33369
G1 X161.561 Y115.042 E6.33939
G1 X163.043 Y114.352 E6.37014
G1 X164.053 Y114.054 E6.38995
G1 X165.618 Y114.019 E6.41939
G1 X167.155 Y114.38 E6.44909
G1 X168.784 Y115.259 E6.48391
G1 X170.206 Y116.916 E6.52498
G1 X170.28 Y117.046 E6.5278
G1 X170.983 Y119.096 E6.56856
G1 X170.95 Y120.974 E6.6039
G1 X170.466 Y122.535 E6.63464
G1 X169.579 Y123.915 E6.6655
G1 X168.369 Y124.96 E6.69557
G1 X167.341 Y125.533 E6.71771
G1 X165.907 Y125.949 E6.7458
G1 X164.16 Y125.982 E6.77866
G1 X162.483 Y125.464 E6.81168
G1 X160.902 Y124.46 E6.84691
G1 X159.554 Y122.677 E6.88895
G1 X159.051 Y120.894 E6.9238
G1 X159.022 Y119.006 E6.95932
G1 X159.647 Y117.356 E6.99251
G1 X160.147 Y116.475 E7.01157
G0 F3600 X160.472 Y116.714
G1 F1800 X161.609 Y115.493 E7.04295
G1 X161.731 Y115.404 E7.04579
G1 X163.156 Y114.736 E7.07539
G1 X164.116 Y114.453 E7.09422
G1 X165.579 Y114.42 E7.12175
G1 X167.01 Y114.756 E7.1494
G1 X168.529 Y115.576 E7.18187
G1 X169.902 Y117.176 E7.22153
G1 X170.582 Y119.158 E7.26094
G1 X170.551 Y120.91 E7.2939
G1 X170.1 Y122.364 E7.32254
G1 X169.273 Y123.651 E7.35132
G1 X168.138 Y124.631 E7.37952
G1 X167.187 Y125.161 E7.4
G1 X165.847 Y125.55 E7.42625
G1 X164.216 Y125.581 E7.45694
G1 X162.653 Y125.098 E7.48771
G1 X161.177 Y124.161 E7.52059
G1 X159.919 Y122.497 E7.55983
G1 X159.45 Y120.835 E7.59232
G1 X159.423 Y119.075 E7.62543
G1 X159.995 Y117.554 E7.656
G1 X160.472 Y116.714 E7.67417
G0 F3600 X160.797 Y116.953
G1 F1800 X161.902 Y115.766 E7.70467
G1 X163.269 Y115.12 E7.73311
G1 X164.179 Y114.852 E7.75096
G1 X165.54 Y114.821 E7.77656
G1 X166.865 Y115.132 E7.80217
G1 X168.272 Y115.892 E7.83225
G1 X169.55 Y117.381 E7.86916
G1 X170.181 Y119.22 E7.90573
G1 X170.152 Y120.846 E7.93632
G1 X169.733 Y122.196 E7.96291
G1 X168.97 Y123.383 E7.98945
G1 X167.904 Y124.304 E8.01595
G1 X167.032 Y124.79 E8.03473
G1 X165.788 Y125.151 E8.0591
G1 X164.272 Y125.18 E8.08762
G1 X162.825 Y124.733 E8.11611
G1 X161.451 Y123.86 E8.14673
G1 X160.284 Y122.317 E8.18312
G1 X159.849 Y120.776 E8.21324
G1 X159.824 Y119.145 E8.24392
G1 X160.343 Y117.752 E8.27189
G1 X160.797 Y116.953 E8.28917
G0 F3600 X161.122 Y117.192
G1 F1800 X162.144 Y116.094 E8.31739
G1 X163.382 Y115.504 E8.34319
G1 X164.242 Y115.251 E8.36005
G1 X165.5 Y115.222 E8.38372
G1 X166.721 Y115.509 E8.40731
G1 X168.017 Y116.209 E8.43502
G1 X169.197 Y117.584 E8.4691
G1 X169.78 Y119.282 E8.50287
G1 X169.753 Y120.782 E8.53109
G1 X169.367 Y122.025 E8.55558
G1 X168.664 Y123.119 E8.58004
G1 X167.673 Y123.975 E8.60467
G1 X166.877 Y124.419 E8.62181
G1 X165.729 Y124.752 E8.6443
G1 X164.328 Y124.779 E8.67066
G1 X162.995 Y124.367 E8.6969
G1 X161.726 Y123.561 E8.72518
G1 X160.649 Y122.137 E8.75877
G1 X160.248 Y120.717 E8.78652
G1 X160.225 Y119.213 E8.81482
G1 X160.691 Y117.95 E8.84014
G1 X161.122 Y117.192 E8.85654
G0 F3600 X161.447 Y117.431
G1 F1800 X162.387 Y116.421 E8.88249
G1 X163.495 Y115.888 E8.90562
G1 X164.305 Y115.65 E8.9215
G1 X165.461 Y115.623 E8.94325
G1 X166.576 Y115.885 E8.9648
G1 X167.762 Y116.526 E8.99016
G1 X168.844 Y117.787 E9.02141
G1 X169.379 Y119.344 E9.05238
G1 X169.354 Y120.718 E9.07823
G1 X169.001 Y121.854 E9.10061
G1 X168.358 Y122.855 E9.12299
G1 X167.442 Y123.646 E9.14575
G1 X166.723 Y124.047 E9.16124
G1 X165.669 Y124.353 E9.18189
G1 X164.384 Y124.378 E9.20606
G1 X163.165 Y124.001 E9.23006
G1 X162.001 Y123.262 E9.256
G1 X161.014 Y121.957 E9.28678
G1 X160.647 Y120.658 E9.31217
G1 X160.626 Y119.282 E9.33805
G1 X161.039 Y118.148 E9.36076
G1 X161.447 Y117.431 E9.37627
G0 F3600 X161.771 Y117.67
G1 F1800 X162.627 Y116.75 E9.39991
G1 X163.608 Y116.272 E9.42044
G1 X164.368 Y116.049 E9.43534
G1 X165.422 Y116.024 E9.45517
G1 X166.431 Y116.261 E9.47467
G1 X167.505 Y116.842 E9.49764
G1 X168.492 Y117.992 E9.52614
G1 X168.978 Y119.406 E9.55427
G1 X168.955 Y120.654 E9.57775
G1 X168.635 Y121.683 E9.59802
G1 X168.052 Y122.591 E9.61832
G1 X167.211 Y123.317 E9.63921
G1 X166.569 Y123.675 E9.65304
G1 X165.609 Y123.954 E9.67185
G1 X164.44 Y123.977 E9.69384
G1 X163.337 Y123.636 E9.71556
G1 X162.275 Y122.961 E9.73923
G1 X161.379 Y121.777 E9.76716
G1 X161.046 Y120.599 E9.79019
G1 X161.027 Y119.35 E9.81368
G1 X161.415 Y118.285 E9.835
G1 X161.771 Y117.67 E9.84837
G0 F3600 X162.095 Y117.909
G1 F1800 X162.868 Y117.078 E9.86972
G1 X163.783 Y116.632 E9.88887
G1 X164.43 Y116.448 E9.90152
G1 X165.382 Y116.425 E9.91943
G1 X166.287 Y116.638 E9.93692
G1 X167.25 Y117.159 E9.95752
G1 X168.139 Y118.195 E9.9832
G1 X168.577 Y119.468 E10.00852
G1 X168.556 Y120.589 E10.02961
G1 X168.269 Y121.512 E10.04779
G1 X167.746 Y122.327 E10.06601
G1 X166.98 Y122.988 E10.08504
G1 X166.415 Y123.303 E10.09721
G1 X165.548 Y123.555 E10.11419
G1 X164.496 Y123.576 E10.13398
G1 X163.506 Y123.27 E10.15348
G1 X162.552 Y122.663 E10.17475
G1 X161.743 Y121.595 E10.19995
G1 X161.445 Y120.54 E10.22057
G1 X161.428 Y119.418 E10.24168
G1 X161.791 Y118.422 E10.26162
G1 X162.095 Y117.909 E10.27284
G0 F3600 X162.416 Y118.151
G1 F1800 X163.109 Y117.406 E10.29198
G1 X163.958 Y116.992 E10.30974
G1 X164.49 Y116.847 E10.32012
G1 X165.342 Y116.826 E10.33615
G1 X166.143 Y117.015 E10.35163
G1 X166.995 Y117.476 E10.36985
G1 X167.786 Y118.398 E10.3927
G1 X168.176 Y119.53 E10.41522
G1 X168.157 Y120.524 E10.43392
G1 X167.903 Y121.341 E10.45002
G1 X167.44 Y122.063 E10.46615
G1 X166.749 Y122.659 E10.48332
G1 X166.261 Y122.931 E10.49383
G1 X165.487 Y123.156 E10.50899
G1 X164.552 Y123.175 E10.52658
G1 X163.675 Y122.904 E10.54385
G1 X162.827 Y122.364 E10.56276
G1 X162.108 Y121.414 E10.58517
G1 X161.844 Y120.481 E10.60341
G1 X161.829 Y119.486 E10.62213
G1 X162.167 Y118.559 E10.64069
G1 X162.416 Y118.151 E10.64968
G0 F3600 X162.709 Y118.424
G1 F1800 X163.353 Y117.732 E10.66746
G1 X164.098 Y117.368 E10.68306
G1 X164.548 Y117.246 E10.69183
G1 X165.302 Y117.227 E10.70601
G1 X165.998 Y117.392 E10.71947
G1 X166.738 Y117.792 E10.73529
G1 X167.434 Y118.603 E10.7554
G1 X167.775 Y119.592 E10.77507
G1 X167.758 Y120.459 E10.79139
G1 X167.537 Y121.17 E10.80539
G1 X167.134 Y121.799 E10.81944
G1 X166.488 Y122.356 E10.83549
G1 X166.149 Y122.547 E10.84281
G1 X165.426 Y122.757 E10.85697
G1 X164.608 Y122.774 E10.87236
G1 X163.844 Y122.538 E10.8874
G1 X163.103 Y122.066 E10.90393
G1 X162.473 Y121.233 E10.92357
G1 X162.243 Y120.422 E10.93943
G1 X162.23 Y119.554 E10.95576
G1 X162.543 Y118.696 E10.97294
G1 X162.709 Y118.424 E10.97893
G0 F3600 X163.002 Y118.697
G1 F1800 X163.597 Y118.058 E10.99536
G1 X164.274 Y117.727 E11.00953
G1 X164.604 Y117.645 E11.01593
G1 X165.261 Y117.628 E11.02829
G1 X165.854 Y117.769 E11.03976
G1 X166.481 Y118.108 E11.05317
G1 X167.081 Y118.807 E11.07049
G1 X167.374 Y119.655 E11.08737
G1 X167.359 Y120.394 E11.10127
G1 X167.171 Y120.999 E11.11319
G1 X166.827 Y121.536 E11.12519
G1 X166.279 Y122.015 E11.13888
G1 X166.038 Y122.163 E11.1442
G1 X165.366 Y122.358 E11.15736
G1 X164.663 Y122.373 E11.17059
G1 X164.013 Y122.172 E11.18339
G1 X163.379 Y121.768 E11.19753
G1 X162.838 Y121.052 E11.21441
G1 X162.642 Y120.363 E11.22788
G1 X162.631 Y119.622 E11.24182
G1 X162.919 Y118.833 E11.25762
G1 X163.002 Y118.697 E11.26062
G0 F3600 X163.295 Y118.97
G1 F1800 X163.841 Y118.384 E11.27569
G1 X164.45 Y118.086 E11.28844
G1 X164.615 Y118.045 E11.29164
G1 X165.22 Y118.029 E11.30302
G1 X165.71 Y118.146 E11.3125
G1 X166.226 Y118.425 E11.32353
G1 X166.728 Y119.01 E11.33803
G1 X166.973 Y119.718 E11.35212
G1 X166.96 Y120.33 E11.36364
G1 X166.806 Y120.827 E11.37343
G1 X166.52 Y121.274 E11.38341
G1 X166.016 Y121.714 E11.39599
G1 X165.875 Y121.794 E11.39904
G1 X165.306 Y121.959 E11.41019
G1 X164.719 Y121.972 E11.42123
G1 X164.181 Y121.805 E11.43183
G1 X163.655 Y121.47 E11.44356
G1 X163.203 Y120.872 E11.45766
G1 X163.041 Y120.303 E11.46879
G1 X163.032 Y119.69 E11.48032
G1 X163.295 Y118.97 E11.49474
G0 F3600 X163.949 Y119.441
G1 F1800 X164.261 Y119.069 E11.50387
G1 X164.724 Y118.842 E11.51357
G1 X165.125 Y118.815 E11.52113
G1 X165.498 Y118.918 E11.52841
G1 X165.759 Y119.081 E11.5342
G1 X166.062 Y119.461 E11.54334
G1 X166.188 Y119.894 E11.55182
G1 X166.175 Y120.204 E11.55766
G1 X166.08 Y120.505 E11.5636
G1 X165.919 Y120.759 E11.56925
G1 X165.553 Y121.057 E11.57813
G1 X165.272 Y121.16 E11.58376
G1 X164.875 Y121.185 E11.59125
G1 X164.502 Y121.082 E11.59852
G1 X164.241 Y120.919 E11.60431
G1 X163.943 Y120.553 E11.61319
G1 X163.84 Y120.272 E11.61882
G1 X163.815 Y119.876 E11.62628
G1 X163.949 Y119.441 E11.63485
G0 F3600 X163.643 Y119.184
G1 F1800 X164.085 Y118.71 E11.64704
G1 X164.626 Y118.445 E11.65837
G1 X165.231 Y118.429 E11.66975
G1 X165.604 Y118.532 E11.67703
G1 X165.971 Y118.742 E11.68499
G1 X166.375 Y119.212 E11.69664
G1 X166.572 Y119.782 E11.70799
G1 X166.575 Y120.221 E11.71625
G1 X166.461 Y120.625 E11.72414
G1 X166.257 Y120.973 E11.73173
G1 X165.753 Y121.413 E11.74432
G1 X165.297 Y121.559 E11.75332
G1 X164.769 Y121.571 E11.76326
G1 X164.396 Y121.468 E11.77054
G1 X163.931 Y121.172 E11.7809
G1 X163.567 Y120.691 E11.79225
G1 X163.441 Y120.297 E11.80003
G1 X163.433 Y119.758 E11.81017
G1 X163.643 Y119.184 E11.82167
G0 F600 X163.643 Y119.184 Z0.4
G0 F3600 X164.422 Y119.159
;TIME_ELAPSED:26.586445
;LAYER:1
;note -- min layer time used
M106 S255
;TYPE:WALL-OUTER
;MESH:references\stl\flatplate.stl
G1 F902.3 X164.373 Y119.188 E11.82214
G1 X164.372 Y119.13 E11.82263
G1 X164.422 Y119.159 E11.82311
;MESH:NONMESH
G0 F600 X164.422 Y119.159 Z0.6
G0 F5400 X164.425 Y119.133
;TIME_ELAPSED:26.669138
;LAYER:2
;note -- min layer time used
;TYPE:WALL-OUTER
;MESH:references\stl\flatplate.stl
G1 F663 X164.358 Y119.172 E11.82399
G1 X164.357 Y119.094 E11.82488
G1 X164.425 Y119.133 E11.82576
;MESH:NONMESH
G0 F600 X164.425 Y119.133 Z0.8
G0 F7200 X165.448 Y119.994
;TIME_ELAPSED:26.793130
;LAYER:3
;note -- min layer time used
M104 S210
;TYPE:WALL-OUTER
;MESH:references\stl\flatplate.stl
G1 F1200 X165.411 Y120.016 E11.82603
