;START_OF_HEADER
;HEADER_VERSION:0.1
;FLAVOR:Griffin
;GENERATOR.NAME:Cura_SteamEngine
;GENERATOR.VERSION:5.11.0
;GENERATOR.BUILD_DATE:2025-10-23
;TARGET_MACHINE.NAME:Ultimaker S5
;EXTRUDER_TRAIN.0.INITIAL_TEMPERATURE:215
;EXTRUDER_TRAIN.0.NOZZLE.DIAMETER:0.4
;EXTRUDER_TRAIN.0.NOZZLE.NAME:unknown
;BUILD_PLATE.INITIAL_TEMPERATURE:60
;BUILD_VOLUME.TEMPERATURE:0
;PRINT.GROUPS:1
;PRINT.SIZE.MIN.X:0
;PRINT.SIZE.MIN.Y:0
;PRINT.SIZE.MIN.Z:0
;PRINT.SIZE.MAX.X:0.01
;PRINT.SIZE.MAX.Y:0.01
;PRINT.SIZE.MAX.Z:0.01
;SLICE_UUID:815c91a0-55ed-42b3-8d04-8f91118fe134
;END_OF_HEADER

;Generated with Cura_SteamEngine 5.11.0
T0

M82 ;absolute extrusion mode
G92 E0
M190 S60
M104 S215
M109 S215
G280 S1
G0 Z20.001
G1 F1500 E-6.5
;LAYER_COUNT:24
;LAYER:0
M107
G0 F3600 X158.617 Y115.55 Z0.3
;TYPE:SKIRT
G1 F1500 E0
G1 F1800 X159.39 Y114.552 E0.02375
G1 X160.743 Y113.46 E0.05645
G1 X162.722 Y112.474 E0.09804
G1 X164.246 Y112.252 E0.12701
G1 X190.622 Y112.2 E0.62316
G1 X192.679 Y112.622 E0.66266
G1 X194.45 Y113.617 E0.70087
G1 X195.448 Y114.39 E0.72462
G1 X196.54 Y115.743 E0.75732
G1 X197.526 Y117.722 E0.79891
G1 X197.748 Y119.246 E0.82788
G1 X197.8 Y145.622 E1.32403
G1 X197.378 Y147.679 E1.36353
G1 X196.383 Y149.45 E1.40174
G1 X195.61 Y150.448 E1.42549
G1 X194.257 Y151.54 E1.45819
G1 X192.278 Y152.526 E1.49978
G1 X190.754 Y152.748 E1.52875
G1 X164.283 Y152.8 E2.02669
G1 X162.282 Y152.361 E2.06522
G1 X160.496 Y151.361 E2.10373
G1 X159.553 Y150.622 E2.12626
G1 X158.472 Y149.276 E2.15874
G1 X157.474 Y147.26 E2.20105
G1 X157.252 Y145.754 E2.22969
G1 X157.2 Y119.378 E2.72583
G1 X157.622 Y117.321 E2.76533
G1 X158.617 Y115.55 E2.80354
G0 F3600 X158.933 Y115.795
G1 F1800 X159.678 Y114.833 E2.82643
G1 X160.96 Y113.799 E2.85741
G1 X162.842 Y112.861 E2.89697
G1 X164.304 Y112.648 E2.92476
G1 X190.581 Y112.6 E3.41905
G1 X192.538 Y113.002 E3.45663
G1 X194.205 Y113.933 E3.49254
G1 X195.167 Y114.678 E3.51543
G1 X196.201 Y115.96 E3.54641
G1 X197.139 Y117.842 E3.58597
G1 X197.352 Y119.304 E3.61376
G1 X197.4 Y145.581 E4.10804
G1 X196.998 Y147.538 E4.14562
G1 X196.067 Y149.205 E4.18154
G1 X195.322 Y150.167 E4.20443
G1 X194.04 Y151.201 E4.23541
G1 X192.158 Y152.139 E4.27496
G1 X190.696 Y152.352 E4.30276
G1 X164.328 Y152.4 E4.79875
G1 X162.424 Y151.982 E4.83542
G1 X160.743 Y151.046 E4.87161
G1 X159.837 Y150.336 E4.89327
G1 X158.808 Y149.055 E4.92417
G1 X157.861 Y147.142 E4.96433
G1 X157.648 Y145.696 E4.99182
G1 X157.6 Y119.419 E5.48611
G1 X158.002 Y117.462 E5.52369
G1 X158.933 Y115.795 E5.5596
G0 F3600 X159.249 Y116.04
G1 F1800 X159.966 Y115.114 E5.58163
G1 X161.177 Y114.138 E5.61089
G1 X162.962 Y113.248 E5.64841
G1 X164.362 Y113.044 E5.67502
G1 X190.539 Y113 E6.16743
G1 X192.397 Y113.382 E6.20311
G1 X193.96 Y114.249 E6.23673
G1 X194.886 Y114.966 E6.25876
G1 X195.862 Y116.177 E6.28801
G1 X196.752 Y117.962 E6.32553
G1 X196.956 Y119.362 E6.35215
G1 X197 Y145.539 E6.84455
G1 X196.618 Y147.397 E6.88023
G1 X195.751 Y148.96 E6.91385
G1 X195.034 Y149.886 E6.93588
G1 X193.823 Y150.862 E6.96514
G1 X192.038 Y151.752 E7.00266
G1 X190.638 Y151.956 E7.02927
G1 X164.373 Y152 E7.52333
G1 X162.567 Y151.603 E7.55811
G1 X160.99 Y150.731 E7.59201
G1 X160.121 Y150.05 E7.61278
G1 X159.144 Y148.834 E7.64212
G1 X158.248 Y147.024 E7.68011
G1 X158.044 Y145.638 E7.70646
G1 X158 Y119.461 E8.19887
G1 X158.382 Y117.603 E8.23455
G1 X159.249 Y116.04 E8.26817
G0 F3600 X159.599 Y116.234
G1 F1800 X160.251 Y115.398 E8.28811
G1 X161.397 Y114.475 E8.31579
G1 X163.082 Y113.635 E8.35121
G1 X164.42 Y113.44 E8.37664
G1 X190.497 Y113.4 E8.86717
G1 X192.257 Y113.762 E8.90097
G1 X193.766 Y114.599 E8.93343
G1 X194.602 Y115.251 E8.95337
G1 X195.525 Y116.397 E8.98105
G1 X196.365 Y118.082 E9.01646
G1 X196.56 Y119.42 E9.0419
G1 X196.6 Y145.497 E9.53242
G1 X196.238 Y147.257 E9.56622
G1 X195.401 Y148.766 E9.59868
G1 X194.749 Y149.602 E9.61862
G1 X193.603 Y150.525 E9.6463
G1 X191.918 Y151.365 E9.68172
G1 X190.58 Y151.56 E9.70715
G1 X164.418 Y151.6 E10.19928
G1 X162.709 Y151.224 E10.23219
G1 X161.237 Y150.416 E10.26378
G1 X160.405 Y149.764 E10.28366
G1 X159.483 Y148.617 E10.31134
G1 X158.635 Y146.903 E10.34731
G1 X158.44 Y145.58 E10.37247
G1 X158.4 Y119.503 E10.86299
G1 X158.762 Y117.743 E10.89679
G1 X159.599 Y116.234 E10.92925
G0 F3600 X159.949 Y116.428
G1 F1800 X160.535 Y115.683 E10.94708
G1 X161.617 Y114.812 E10.97321
G1 X163.202 Y114.022 E11.00652
G1 X164.478 Y113.836 E11.03078
G1 X190.455 Y113.8 E11.51942
G1 X192.117 Y114.142 E11.55134
G1 X193.572 Y114.949 E11.58264
G1 X194.317 Y115.535 E11.60047
G1 X195.188 Y116.617 E11.62659
G1 X195.978 Y118.202 E11.65991
G1 X196.164 Y119.478 E11.68416
G1 X196.2 Y145.455 E12.17281
G1 X195.858 Y147.117 E12.20472
G1 X195.051 Y148.572 E12.23602
G1 X194.465 Y149.317 E12.25385
G1 X193.383 Y150.188 E12.27998
G1 X191.798 Y150.978 E12.31329
G1 X190.522 Y151.164 E12.33755
G1 X164.463 Y151.2 E12.82773
G1 X162.849 Y150.845 E12.85882
G1 X161.484 Y150.101 E12.88806
G1 X160.686 Y149.476 E12.90713
G1 X159.821 Y148.399 E12.93311
G1 X159.022 Y146.785 E12.96699
G1 X158.836 Y145.522 E12.991
G1 X158.8 Y119.545 E13.47965
G1 X159.142 Y117.883 E13.51156
G1 X159.949 Y116.428 E13.54286
G0 F3600 X160.299 Y116.622
G1 F1800 X160.82 Y115.968 E13.55859
G1 X161.835 Y115.151 E13.5831
G1 X163.323 Y114.409 E13.61438
G1 X164.536 Y114.232 E13.63743
G1 X190.413 Y114.2 E14.1242
G1 X191.977 Y114.522 E14.15423
G1 X193.378 Y115.299 E14.18437
G1 X194.032 Y115.82 E14.2001
G1 X194.849 Y116.835 E14.22461
G1 X195.591 Y118.323 E14.25588
G1 X195.768 Y119.536 E14.27894
G1 X195.8 Y145.413 E14.7657
G1 X195.478 Y146.977 E14.79574
G1 X194.701 Y148.378 E14.82587
G1 X194.18 Y149.032 E14.8416
G1 X193.165 Y149.849 E14.86611
G1 X191.677 Y150.591 E14.89739
G1 X190.464 Y150.768 E14.92045
G1 X164.508 Y150.8 E15.4087
G1 X162.989 Y150.466 E15.43795
G1 X161.731 Y149.786 E15.46485
G1 X160.97 Y149.19 E15.48303
G1 X160.157 Y148.178 E15.50745
G1 X159.409 Y146.667 E15.53917
G1 X159.232 Y145.464 E15.56204
G1 X159.2 Y119.587 E16.0488
G1 X159.522 Y118.023 E16.07884
G1 X160.299 Y116.622 E16.10897
G0 F3600 X160.612 Y116.871
G1 F1800 X161.104 Y116.254 E16.12382
G1 X162.055 Y115.488 E16.14679
G1 X163.443 Y114.796 E16.17596
G1 X164.594 Y114.628 E16.19784
G1 X190.371 Y114.6 E16.68272
G1 X191.838 Y114.902 E16.7109
G1 X193.129 Y115.612 E16.73861
G1 X193.746 Y116.104 E16.75345
G1 X194.512 Y117.055 E16.77642
G1 X195.204 Y118.443 E16.8056
G1 X195.372 Y119.594 E16.82748
G1 X195.4 Y145.371 E17.31236
G1 X195.098 Y146.838 E17.34053
G1 X194.388 Y148.129 E17.36825
G1 X193.896 Y148.746 E17.38309
G1 X192.945 Y149.512 E17.40606
G1 X191.557 Y150.204 E17.43524
G1 X190.406 Y150.372 E17.45712
G1 X164.553 Y150.4 E17.94343
G1 X163.13 Y150.087 E17.97083
G1 X161.978 Y149.471 E17.99541
G1 X161.254 Y148.904 E18.0127
G1 X160.493 Y147.957 E18.03556
G1 X159.796 Y146.549 E18.06511
G1 X159.628 Y145.406 E18.08684
G1 X159.6 Y119.629 E18.57172
G1 X159.902 Y118.162 E18.59989
G1 X160.612 Y116.871 E18.62761
G0 F3600 X160.925 Y117.12
G1 F1800 X161.39 Y116.537 E18.64164
G1 X162.271 Y115.827 E18.66292
G1 X163.563 Y115.183 E18.69008
G1 X164.652 Y115.024 E18.71078
G1 X190.329 Y115 E19.19378
G1 X191.7 Y115.282 E19.22011
G1 X192.88 Y115.925 E19.24538
G1 X193.463 Y116.39 E19.25941
G1 X194.173 Y117.271 E19.2807
G1 X194.817 Y118.563 E19.30785
G1 X194.976 Y119.652 E19.32855
G1 X195 Y145.329 E19.81155
G1 X194.718 Y146.7 E19.83788
G1 X194.075 Y147.88 E19.86316
G1 X193.61 Y148.463 E19.87719
G1 X192.729 Y149.173 E19.89847
G1 X191.437 Y149.817 E19.92562
G1 X190.348 Y149.976 E19.94633
G1 X164.598 Y150 E20.4307
G1 X163.27 Y149.708 E20.45628
G1 X162.167 Y149.118 E20.47981
G1 X161.539 Y148.619 E20.49489
G1 X160.829 Y147.736 E20.51621
G1 X160.183 Y146.431 E20.5436
G1 X160.024 Y145.348 E20.56419
G1 X160 Y119.671 E21.04719
G1 X160.282 Y118.3 E21.07352
G1 X160.925 Y117.12 E21.09879
G0 F3600 X161.238 Y117.369
G1 F1800 X161.674 Y116.822 E21.11195
G1 X162.491 Y116.164 E21.13168
G1 X163.683 Y115.57 E21.15674
G1 X164.71 Y115.42 E21.17626
G1 X190.287 Y115.4 E21.65738
G1 X191.562 Y115.662 E21.68186
G1 X192.631 Y116.238 E21.7047
G1 X193.178 Y116.674 E21.71786
G1 X193.836 Y117.491 E21.7376
G1 X194.43 Y118.683 E21.76265
G1 X194.58 Y119.71 E21.78217
G1 X194.6 Y145.287 E22.26329
G1 X194.338 Y146.562 E22.28777
G1 X193.762 Y147.631 E22.31061
G1 X193.326 Y148.178 E22.32377
G1 X192.509 Y148.836 E22.34351
G1 X191.317 Y149.43 E22.36856
G1 X190.29 Y149.58 E22.38808
G1 X164.643 Y149.6 E22.87052
G1 X163.41 Y149.329 E22.89426
G1 X162.356 Y148.765 E22.91675
G1 X161.825 Y148.336 E22.92959
G1 X161.165 Y147.515 E22.9494
G1 X160.57 Y146.313 E22.97463
G1 X160.42 Y145.29 E22.99408
G1 X160.4 Y119.713 E23.4752
G1 X160.662 Y118.438 E23.49968
G1 X161.238 Y117.369 E23.52253
G0 F3600 X161.59 Y117.559
G1 F1800 X161.956 Y117.109 E23.53344
G1 X162.711 Y116.501 E23.55167
G1 X163.803 Y115.957 E23.57462
G1 X164.768 Y115.816 E23.59297
G1 X190.246 Y115.8 E24.07222
G1 X191.424 Y116.042 E24.09484
G1 X192.441 Y116.59 E24.11657
G1 X192.891 Y116.956 E24.12748
G1 X193.499 Y117.711 E24.14572
G1 X194.043 Y118.803 E24.16867
G1 X194.184 Y119.768 E24.18701
G1 X194.2 Y145.246 E24.66627
G1 X193.958 Y146.424 E24.68889
G1 X193.41 Y147.441 E24.71062
G1 X193.044 Y147.891 E24.72153
G1 X192.289 Y148.499 E24.73977
G1 X191.197 Y149.043 E24.76272
G1 X190.232 Y149.184 E24.78106
G1 X164.688 Y149.2 E25.26156
G1 X163.55 Y148.95 E25.28347
G1 X162.578 Y148.43 E25.30421
G1 X162.111 Y148.052 E25.31551
G1 X161.501 Y147.294 E25.33381
G1 X160.957 Y146.195 E25.35688
G1 X160.816 Y145.232 E25.37519
G1 X160.8 Y119.754 E25.85444
G1 X161.042 Y118.576 E25.87706
G1 X161.59 Y117.559 E25.8988
G0 F3600 X161.905 Y117.806
G1 F1800 X162.207 Y117.421 E25.908
G1 X162.931 Y116.838 E25.92549
G1 X163.923 Y116.344 E25.94633
G1 X164.826 Y116.212 E25.9635
G1 X190.205 Y116.2 E26.44089
G1 X191.286 Y116.422 E26.46165
G1 X192.194 Y116.905 E26.481
G1 X192.579 Y117.207 E26.4902
G1 X193.162 Y117.931 E26.50769
G1 X193.656 Y118.923 E26.52853
G1 X193.788 Y119.826 E26.5457
G1 X193.8 Y145.205 E27.02309
G1 X193.578 Y146.286 E27.04385
G1 X193.095 Y147.194 E27.0632
G1 X192.793 Y147.579 E27.0724
G1 X192.069 Y148.162 E27.08988
G1 X191.077 Y148.656 E27.11073
G1 X190.174 Y148.788 E27.1279
G1 X164.733 Y148.8 E27.60646
G1 X163.69 Y148.571 E27.62654
G1 X162.767 Y148.077 E27.64624
G1 X162.398 Y147.77 E27.65527
G1 X161.839 Y147.075 E27.67204
G1 X161.344 Y146.076 E27.69301
G1 X161.212 Y145.174 E27.71016
G1 X161.2 Y119.795 E28.18756
G1 X161.422 Y118.714 E28.20831
G1 X161.905 Y117.806 E28.22766
G0 F3600 X162.226 Y118.045
G1 F1800 X162.458 Y117.733 E28.23497
G1 X163.151 Y117.175 E28.25171
G1 X164.043 Y116.731 E28.27045
G1 X164.884 Y116.608 E28.28644
G1 X190.164 Y116.6 E28.76197
G1 X191.15 Y116.802 E28.7809
G1 X191.955 Y117.226 E28.79802
G1 X192.267 Y117.458 E28.80533
G1 X192.825 Y118.151 E28.82207
G1 X193.269 Y119.043 E28.84081
G1 X193.392 Y119.884 E28.8568
G1 X193.4 Y145.164 E29.33233
G1 X193.198 Y146.15 E29.35126
G1 X192.774 Y146.955 E29.36838
G1 X192.542 Y147.267 E29.37569
G1 X191.849 Y147.825 E29.39243
G1 X190.957 Y148.269 E29.41117
G1 X190.116 Y148.392 E29.42716
G1 X164.778 Y148.4 E29.90378
G1 X163.83 Y148.192 E29.92204
G1 X162.956 Y147.724 E29.94069
G1 X162.71 Y147.519 E29.94671
G1 X162.177 Y146.856 E29.96271
G1 X161.731 Y145.957 E29.98159
G1 X161.608 Y145.116 E29.99758
G1 X161.6 Y119.836 E30.47311
G1 X161.802 Y118.85 E30.49204
G1 X162.226 Y118.045 E30.50915
G0 F3600 X162.58 Y118.232
G1 F1800 X162.749 Y118.012 E30.51437
G1 X163.367 Y117.514 E30.5293
G1 X164.163 Y117.118 E30.54603
G1 X164.942 Y117.004 E30.56083
G1 X190.123 Y117 E31.0345
G1 X191.013 Y117.182 E31.05159
G1 X191.768 Y117.58 E31.06765
G1 X191.988 Y117.749 E31.07286
G1 X192.486 Y118.367 E31.08779
G1 X192.882 Y119.163 E31.10452
G1 X192.996 Y119.942 E31.11933
G1 X193 Y145.123 E31.593
G1 X192.818 Y146.013 E31.61008
G1 X192.42 Y146.768 E31.62614
G1 X192.251 Y146.988 E31.63136
G1 X191.633 Y147.486 E31.64629
G1 X190.837 Y147.882 E31.66301
G1 X190.058 Y147.996 E31.67782
G1 X164.823 Y148 E32.1525
G1 X163.97 Y147.813 E32.16893
G1 X163.145 Y147.371 E32.18654
G1 X163.022 Y147.268 E32.18955
G1 X162.515 Y146.637 E32.20478
G1 X162.118 Y145.837 E32.22158
G1 X162.004 Y145.058 E32.23639
G1 X162 Y119.877 E32.71006
G1 X162.182 Y118.987 E32.72715
G1 X162.58 Y118.232 E32.7432
G0 F3600 X162.934 Y118.418
G1 F1800 X163.037 Y118.293 E32.74625
G1 X163.583 Y117.853 E32.75944
G1 X164.283 Y117.505 E32.77414
G1 X165 Y117.4 E32.78777
G1 X190.082 Y117.4 E33.25958
G1 X190.878 Y117.563 E33.27486
G1 X191.582 Y117.934 E33.28983
G1 X191.707 Y118.037 E33.29288
G1 X192.147 Y118.583 E33.30607
G1 X192.495 Y119.283 E33.32077
G1 X192.6 Y120 E33.3344
G1 X192.6 Y145.082 E33.80621
G1 X192.437 Y145.878 E33.8215
G1 X192.066 Y146.582 E33.83646
G1 X191.963 Y146.707 E33.83951
G1 X191.417 Y147.147 E33.8527
G1 X190.717 Y147.495 E33.86741
G1 X190 Y147.6 E33.88104
G1 X164.868 Y147.6 E34.35378
G1 X164.11 Y147.434 E34.36838
G1 X163.334 Y147.018 E34.38494
G1 X162.854 Y146.42 E34.39937
G1 X162.505 Y145.717 E34.41413
G1 X162.4 Y145 E34.42776
G1 X162.4 Y119.918 E34.89957
G1 X162.563 Y119.122 E34.91485
G1 X162.934 Y118.418 E34.92982
G0 F3600 X163.288 Y118.604
G1 F1800 X163.799 Y118.192 E34.94217
G1 X164.405 Y117.891 E34.9549
G1 X165 Y117.8 E34.96622
G1 X190.041 Y117.8 E35.43725
G1 X190.743 Y117.944 E35.45073
G1 X191.396 Y118.288 E35.46462
G1 X191.808 Y118.799 E35.47696
G1 X192.109 Y119.405 E35.48969
G1 X192.2 Y120 E35.50101
G1 X192.2 Y145.041 E35.97205
G1 X192.056 Y145.743 E35.98553
G1 X191.712 Y146.396 E35.99941
G1 X191.201 Y146.808 E36.01176
G1 X190.595 Y147.109 E36.02449
G1 X190 Y147.2 E36.03581
G1 X164.913 Y147.2 E36.50771
G1 X164.247 Y147.054 E36.52054
G1 X163.597 Y146.705 E36.53441
G1 X163.192 Y146.201 E36.54658
G1 X162.891 Y145.595 E36.5593
G1 X162.8 Y145 E36.57063
G1 X162.8 Y119.959 E37.04166
G1 X162.944 Y119.257 E37.05514
G1 X163.288 Y118.604 E37.06903
G0 F3600 X163.605 Y118.862
G1 F1800 X163.977 Y118.55 E37.07816
G1 X164.526 Y118.277 E37.08969
G1 X165 Y118.2 E37.09872
G1 X190 Y118.2 E37.56899
G1 X190.606 Y118.324 E37.58062
G1 X191.138 Y118.605 E37.59194
G1 X191.45 Y118.977 E37.60107
G1 X191.723 Y119.526 E37.61261
G1 X191.8 Y120 E37.62164
G1 X191.8 Y145 E38.0919
G1 X191.676 Y145.606 E38.10354
G1 X191.395 Y146.138 E38.11486
G1 X191.023 Y146.45 E38.12399
G1 X190.474 Y146.723 E38.13552
G1 X190 Y146.8 E38.14456
G1 X164.958 Y146.8 E38.61561
G1 X164.384 Y146.674 E38.62666
G1 X163.859 Y146.392 E38.63787
G1 X163.55 Y146.023 E38.64693
G1 X163.277 Y145.474 E38.65846
G1 X163.2 Y145 E38.66749
G1 X163.2 Y120 E39.13776
G1 X163.324 Y119.394 E39.14939
G1 X163.605 Y118.862 E39.16071
G0 F3600 X163.923 Y119.117
G1 F1800 X164.155 Y118.908 E39.16659
G1 X164.649 Y118.662 E39.17697
G1 X165 Y118.6 E39.18367
G1 X190 Y118.6 E39.65393
G1 X190.419 Y118.678 E39.66195
G1 X190.883 Y118.923 E39.67182
G1 X191.092 Y119.155 E39.6777
G1 X191.338 Y119.649 E39.68808
G1 X191.4 Y120 E39.69478
G1 X191.4 Y145 E40.16504
G1 X191.322 Y145.419 E40.17306
G1 X191.077 Y145.883 E40.18293
G1 X190.845 Y146.092 E40.18881
G1 X190.351 Y146.338 E40.19919
G1 X190 Y146.4 E40.20589
G1 X164.958 Y146.4 E40.67695
G1 X164.477 Y146.285 E40.68625
G1 X164.117 Y146.077 E40.69407
G1 X163.908 Y145.845 E40.69994
G1 X163.662 Y145.351 E40.71032
G1 X163.6 Y145 E40.71703
G1 X163.6 Y120 E41.18729
G1 X163.678 Y119.581 E41.19531
G1 X163.923 Y119.117 E41.20518
G0 F3600 X164.207 Y119.399
G1 F1800 X164.07 Y119.662 E41.21076
G1 X164 Y120 E41.21725
G1 X164 Y145 E41.68751
G1 X164.054 Y145.273 E41.69275
G1 X164.26 Y145.655 E41.70091
G1 X164.399 Y145.793 E41.7046
G1 X164.662 Y145.93 E41.71018
G1 X165 Y146 E41.71667
G1 X190 Y146 E42.18693
G1 X190.273 Y145.946 E42.19217
G1 X190.655 Y145.74 E42.20033
G1 X190.793 Y145.601 E42.20402
G1 X190.93 Y145.338 E42.20959
G1 X191 Y145 E42.21609
G1 X191 Y120 E42.68635
G1 X190.946 Y119.727 E42.69159
G1 X190.74 Y119.345 E42.69975
G1 X190.601 Y119.207 E42.70343
G1 X190.338 Y119.07 E42.70901
G1 X190 Y119 E42.7155
G1 X165 Y119 E43.18577
G1 X164.727 Y119.054 E43.191
G1 X164.345 Y119.26 E43.19917
G1 X164.207 Y119.399 E43.20285
G0 F3600 X164.839 Y119.881
G1 F1800 X165 Y119.8 E43.20624
G1 X190 Y119.8 E43.67651
G1 X190.119 Y119.839 E43.67886
